!!!COM: colbie-caillat
!!!OTL: realize
!!!RNB: hooktheoryid: pyvgPeMYxYq
**kern	**text
*clefG2	*
*k[b-e-a-d-g-]	*
*M4/4	*
=1	=1
8r	Db
8a-	.
8.f	.
16d-	.
16e-	.
16d-	.
4.d-	.
=2	=2
8r	Ab/C
8a-	.
8.e-	.
16d-	.
16e-	.
16d-	.
8f	.
16e-	.
8.d-	.
=3	=3
8r	Gb
16d-	.
16B-	.
4d-	.
4r	Bbm
16d-	.
16e-	.
16f	.
[16a-	.
=4	=4
16a-]	Ab
4..e-	.
2r	.
=5	=5
8r	Db
8a-	.
8.f	.
16d-	.
16e-	.
16d-	.
4.d-	.
=6	=6
8r	Ab/C
8a-	.
8.e-	.
16d-	.
16e-	.
16d-	.
8f	.
8a-	.
16f	.
[16d-	.
=7	=7
8d-]	Gb
8e-	.
[4rL	.
4r]J	Bbm
16a-	.
16f	.
16d-	.
[16f	.
=8	=8
16f]	Ab/C
4e-	.
4..d-	.
4r	Ab
*-	*-